icon/pk/messages-one.svg

<svg viewBox="0 0 48 48" fill="none" xmlns="http://www.w3.org/2000/svg" height="1em" width="1em">
  <path d="M39 6H9C7.34315 6 6 7.34315 6 9V39C6 40.6569 7.34315 42 9 42H39C40.6569 42 42 40.6569 42 39V9C42 7.34315 40.6569 6 39 6Z" fill="#2F88FF" stroke="black" stroke-width="4"/>
  <path d="M34 23C34 26.8624 31.2967 30.1565 27.5 31.4334C26.4107 31.7997 25.2313 32 24 32C20 32 15 34 15 34L16.1323 31.5543C16.6952 30.3384 16.336 28.9248 15.5616 27.8314C14.5729 26.4356 14 24.778 14 23C14 18.0294 18.4772 14 24 14C29.5228 14 34 18.0294 34 23Z" fill="#43CCF8" stroke="white" stroke-width="4" stroke-linejoin="round"/>
</svg>

<svg width="48" height="48" fill="none" xmlns="http://www.w3.org/2000/svg"><path d="M39 6H9a3 3 0 0 0-3 3v30a3 3 0 0 0 3 3h30a3 3 0 0 0 3-3V9a3 3 0 0 0-3-3Z" fill="#2F88FF" stroke="#000" stroke-width="4"/><path d="M34 23c0 3.862-2.703 7.157-6.5 8.433-1.09.367-2.269.567-3.5.567-4 0-9 2-9 2l1.132-2.446c.563-1.216.204-2.63-.57-3.723C14.572 26.436 14 24.778 14 23c0-4.97 4.477-9 10-9s10 4.03 10 9Z" fill="#43CCF8" stroke="#fff" stroke-width="4" stroke-linejoin="round"/></svg>
